X: 19
T: Kid On The Mountain, The
Z: chansherly212
S: https://thesession.org/tunes/52#setting53890
R: slip jig
M: 9/8
L: 1/8
K: Emin
|: ~E3 FEF G2 F|~E3 BcA BFD| ~E3 FEF G2 A |BAG FAG FED:|
|:BGB AFA G2 D|GAB dge dBA|BGB AFA G2 A|BAG FAG FED:|
|:g2 e eBe e2 f|gfg efg afd|g2e eBe e2 a|bag fag fed:|
|:eBB e2f g2f|~e3 efg afd|eBB e2f g2a|bag fag fed:|
|:edB dBA G2D|GAB dge dBA|edB dBA G2A|BAG FAG FED:|

